sanatorium/img/svg/icon-ok.svg

<svg width="30" height="30" viewBox="0 0 30 30" fill="none" xmlns="http://www.w3.org/2000/svg">
<g clip-path="url(#clip0)">
<path d="M13.5226 21.1308C11.1969 20.8882 9.09994 20.3154 7.30461 18.9113C7.08184 18.7366 6.85185 18.5682 6.64856 18.3731C5.86275 17.6184 5.78357 16.754 6.40537 15.8633C6.93731 15.101 7.83026 14.8971 8.7584 15.3348C8.93812 15.4196 9.10936 15.5255 9.27337 15.6392C12.6193 17.9382 17.2157 18.0017 20.5742 15.7426C20.9069 15.4875 21.2626 15.2795 21.6748 15.1733C22.4763 14.9675 23.2238 15.2619 23.6539 15.9632C24.1453 16.7641 24.1391 17.5458 23.5336 18.1676C22.6048 19.1209 21.4878 19.8105 20.2468 20.2919C19.0732 20.7468 17.7878 20.9759 16.5157 21.128C16.7076 21.3369 16.7981 21.4396 16.9181 21.5603C18.6456 23.2959 20.3806 25.0243 22.1024 26.7653C22.689 27.3585 22.8116 28.0941 22.4886 28.784C22.1354 29.5381 21.3449 30.0342 20.5698 29.9811C20.0787 29.9472 19.6957 29.7028 19.3554 29.36C18.0518 28.0482 16.7237 26.7606 15.4464 25.424C15.0747 25.0353 14.896 25.1089 14.5679 25.4463C13.2565 26.7964 11.9236 28.1258 10.583 29.4476C9.98095 30.0411 9.26458 30.148 8.56643 29.809C7.82429 29.4492 7.35205 28.6917 7.3885 27.9304C7.41363 27.4154 7.66688 27.022 8.02035 26.6692C9.7299 24.9621 11.4347 23.2507 13.1402 21.5408C13.253 21.4271 13.3583 21.3064 13.5226 21.1308Z" fill="#D9576B"/>
<path d="M14.9411 15.1849C10.7921 15.1708 7.39 11.7313 7.41419 7.57567C7.43807 3.37421 10.8424 -0.0115955 15.0323 2.98477e-05C19.2306 0.011341 22.6004 3.44585 22.5793 7.69099C22.5579 11.8381 19.1322 15.1994 14.9411 15.1849ZM18.7118 7.58573C18.7046 5.52239 17.0613 3.87976 15.0021 3.87787C12.9255 3.87567 11.2675 5.54815 11.2835 7.63034C11.2989 9.68583 12.9563 11.3168 15.0213 11.3093C17.0799 11.3021 18.7187 9.64876 18.7118 7.58573Z" fill="#D9576B"/>
</g>
<defs>
<clipPath id="clip0">
<rect width="30" height="30" fill="white"/>
</clipPath>
</defs>
</svg>

<svg width="30" height="30" fill="none" xmlns="http://www.w3.org/2000/svg"><g clip-path="url(#clip0)" fill="#D9576B"><path d="M13.523 21.13c-2.326-.242-4.423-.815-6.218-2.219-.223-.174-.453-.343-.656-.538-.786-.755-.865-1.619-.244-2.51.532-.762 1.425-.966 2.353-.528.18.085.351.19.515.304 3.346 2.3 7.943 2.363 11.301.104.333-.255.689-.463 1.1-.57.802-.206 1.55.089 1.98.79.491.801.485 1.583-.12 2.205-.93.953-2.046 1.643-3.287 2.124-1.174.455-2.46.684-3.731.836.192.209.282.312.402.432 1.728 1.736 3.463 3.464 5.184 5.205.587.593.71 1.33.387 2.019-.354.754-1.144 1.25-1.92 1.197-.49-.034-.873-.278-1.214-.621-1.303-1.312-2.631-2.6-3.909-3.936-.371-.389-.55-.315-.878.022a261.443 261.443 0 01-3.985 4.002c-.602.593-1.318.7-2.017.361-.742-.36-1.214-1.117-1.178-1.879.026-.515.279-.908.632-1.26 1.71-1.708 3.415-3.42 5.12-5.13.113-.113.218-.234.383-.41z"/><path d="M14.941 15.185c-4.149-.014-7.551-3.454-7.527-7.61.024-4.2 3.428-7.587 7.618-7.575 4.199.011 7.568 3.446 7.547 7.691-.021 4.147-3.447 7.508-7.638 7.494zm3.77-7.6a3.698 3.698 0 00-3.709-3.707 3.704 3.704 0 00-3.719 3.752 3.698 3.698 0 003.738 3.68 3.69 3.69 0 003.69-3.724z"/></g><defs><clipPath id="clip0"><path fill="#fff" d="M0 0h30v30H0z"/></clipPath></defs></svg>
